X: 5
T: Tha Mi Sgith
R: strathspey
M: 4/4
L: 1/8
K: Amin
|: A2 a2 g<e g2 | e>dBA GAB<G |A2 a2 g<e g2 | e>dB<e A2 A2|
A2 a2 g<e g2 | e>dBA GAB<G |A2 a2 g<e g2 | e>dB<e A2 A2||
|: e>dBA GAB<G | e>dBA B<d d2 |e>dBA GAB<G | edB<e A2A2 |
e>dBA GAB<G | e>dBA B<d d2 |e>dBA GAB<G | edB<e A2A2 ||


Tune 647	Setting 29152

